X: 1
T:Rachel Rae
T:Courting Them All
M:4/4
L:1/8
Q:1/4=150
R:Reel
K:D
"D"D2FA d2AF|"D"d2fd "A7"e2cA|
"D"d2AF "G"BAGF|"A7"EFGA "D"FD D2:|
"D"defg a2fd|"G"g2bg "A7"e2cA|
"D"defg a2gf|"G"eg"A7"fe "D"fddA|
"D"defg a2fd|"G"g2bg "A7"e2cA|
"D"d2AF "G"BAGF|"A7"EFGA "D"FD D2

% Output from ABC2Win  Version 2.1 i on 26/05/2001
